assets/images/svg/discount-circle.svg

<svg width="25" height="25" viewBox="0 0 25 25" fill="none" xmlns="http://www.w3.org/2000/svg">
<path d="M12.9065 2.00879C7.38649 2.00879 2.90649 6.50795 2.90649 12.0516C2.90649 17.5952 7.38649 22.0943 12.9065 22.0943C18.4265 22.0943 22.9065 17.5952 22.9065 12.0516C22.9065 6.50795 18.4265 2.00879 12.9065 2.00879ZM9.90649 8.03445C10.4565 8.03445 10.9065 8.48637 10.9065 9.03872C10.9065 9.59108 10.4665 10.043 9.90649 10.043C9.35649 10.043 8.90649 9.59108 8.90649 9.03872C8.90649 8.48637 9.35649 8.03445 9.90649 8.03445ZM10.4365 15.5967C10.2865 15.7473 10.0965 15.8176 9.90649 15.8176C9.71649 15.8176 9.52649 15.7473 9.37649 15.5967C9.08649 15.3054 9.08649 14.8234 9.37649 14.5321L15.3765 8.50646C15.6665 8.21522 16.1465 8.21522 16.4365 8.50646C16.7265 8.7977 16.7265 9.27975 16.4365 9.57099L10.4365 15.5967ZM15.9065 16.0687C15.3465 16.0687 14.8965 15.6167 14.8965 15.0644C14.8965 14.512 15.3465 14.0601 15.8965 14.0601C16.4465 14.0601 16.8965 14.512 16.8965 15.0644C16.8965 15.6167 16.4565 16.0687 15.9065 16.0687Z" fill="#F58218"/>
</svg>

<svg xmlns="http://www.w3.org/2000/svg" width="25" height="25" fill="none" viewBox="0 0 25 25"><path fill="#f58218" d="M12.907 2.009c-5.52 0-10 4.499-10 10.043s4.48 10.042 10 10.042 10-4.499 10-10.042-4.48-10.043-10-10.043m-3 6.025a1.005 1.005 0 0 1 0 2.009 1.005 1.005 0 0 1 0-2.009m.53 7.563a.74.74 0 0 1-.53.22.74.74 0 0 1-.53-.22.76.76 0 0 1 0-1.065l6-6.026a.75.75 0 0 1 1.06 0 .76.76 0 0 1 0 1.065zm5.47.472a1.005 1.005 0 0 1-.01-2.009c.55 0 1 .452 1 1.004a.997.997 0 0 1-.99 1.005"/></svg>
